!!!OTL: 238. Nachahmungsspiel.
!!!ARE: Europa, Mitteleuropa, Deutschland
!!!SCT: K2238
!!!TXL: @@DE
!!!YEM: Copyright 1995, estate of Helmut Schaffrath.
**kern	**text
*clefG2	*
*M2/4	*
*k[]	*
*C:	*
=1	=1
{8c	A-
8d	-dam
8e	hat-
8f	-ie
=2	=2
8g	ſie-
8g	-ben
8g	Söh-
8g}	-ne,
=3	=3
{8g	ſie-
8f	-ben
8cc	Söhn'
8a	hatt'
=4	=4
4g	A-
8e}	-dam.
{8e	Sie
=5	=5
8g	a-
8f	-ßen
8f	nicht,
8f	ſie
=6	=6
8f	tran-
8e	-ken
8e}	nicht,
{8e	ſie
=7	=7
8d	mach-
8d	-tens
8g	al-
8g	-le
=8	=8
!LO:TX:a:t=+	!
2c;}	ſo.
==	==
!!!AGN: Kinder - Lied, Reigen, Tanz, Nachahmungs - Spiel
!!!ONB: ESAC (Essen Associative Code) Database: KINDER
!!!AMT: simple duple
!!!AIN: vox
!!!EED: Helmut Schaffrath
!!!EEV: 1.0
!!Uralte, in ganz Deutschland bekannte Volksweise*.
!!!GTL: Zweites Buch. Kinderspiel: 2. Reigen und Tanzspiele. / E. Reigenspiele mit Nachahmungen.
!!@@COMMENT:"+Bei dieſer Stelle macht der Vorſänger irgend eine Gebärde, Grimaſſe, Stellung oder Bewegung vor, die von allen Mitſpielenden nachgeahmt wird.
!!*Wenn es in den Jugendſpielen von GutsMuths heißt: "Nach dieſem Liedchen (?) tanʒten die Echternacher bei ihrer Springproʒeſſion", ſo iſt das grundfalſch. 
!!Nur die Melodie unſeres Spielliedes iſt der alten Jnſtrumentalweiſe der Springproʒeſſiou ähnlich. Letʒtere iſt ʒweimal notirt ʒu ſehen in meiner Geſchichte des Tanʒes, II. Bd. Beilage Rr. 311."
!!@@END:
!!!URL-scan: https://archive.org/details/DeutschesKinderliedUndKinderspiel/page/495/mode/1up
!!!ENC: Anna Maria Matuszewska
!!!EEV: 2024/04/09
*-	*-
